**kern	**kern
*staff1	*staff1
*head[head1]	*head[head1]
*solo[solo1]	*solo[solo1]
*solo[solo2]	*solo[solo2]
*solo[solo3]	*solo[solo3]
=1-	=1-
*clefG2	*clefG2
*k[]	*k[]
*B-:	*B-:
*M4/4	*M4/4
1r	.
=2	=2
1r	.
=3	=3
1r	.
=4	=4
1r	.
=5	=5
1r	.
=6	=6
1r	.
=7	=7
1r	.
=8	=8
2r	.
4r	.
8r	.
*>head1	*>head1
{[8dd\	.
=9	=9
4dd\]	1B-:maj
8f/L	.
[8b-/J	.
4b-\]}	.
8r	.
8dd\	.
=10||	=10||
24cc\LL	2A:h7
24dd\	.
24cc\JJ	.
8b-/L	.
8a/	.
8g/J	.
8g-\L	2D:dom
16cc#\L	.
16dd\JJ	.
16ccn\LL	.
16cc#\J	.
[8dd\J	.
=11	=11
4dd\]	2G:min
8f/L	.
[8b-/J	.
4b-\]}	2C:dom
8r	.
8dd\	.
=12	=12
24cc\LL	2F:min
24dd\	.
24cc\JJ	.
8b-/L	.
8a-/	.
8c/J	.
8g/L	2B-:dom
8f/	.
8b-/	.
[8dd-/J	.
=13	=13
8dd-\]	1E-:dom
24b-/LL	.
24a-/	.
24f/JJ	.
8e-/L	.
[8b-/J	.
4b-\]}	.
4r	.
=14	=14
4r	1E-:min
{8ee\L	.
8ee-\J	.
24dd-\LL	.
24ee-\	.
24dd-\JJ	.
8b-\L	.
8cc\	.
8b-\J	.
=15	=15
24a/LL	1D:min
24b-/	.
24a/JJ	.
8f/L	.
8d/	.
8B-/J	.
2a/}	.
=16	=16
4r	1D-:min
{16a-/LL	.
16an/	.
16a-/	.
16g-/JJ	.
8e/L	.
8B-/	.
8Bn/	.
8d/J	.
=17	=17
8c/L	1C:min
8B/	.
8c/	.
8d/J	.
8e-/L	.
8f/	.
8f#/	.
8g/J	.
=18	=18
8b-/L	1F:dom
8g/	.
8e-/	.
8c/J	.
24a-/LL	.
24b-/	.
24a-/JJ	.
8g-/L	.
8B/	.
8A/J	.
=19	=19
8B-/L	2B-:maj
8e-/J	.
12c/L	.
12c#/	.
[12d/J	.
2d/]}	2G:dom
=20	=20
2r	2C:min
4r	2F:dom
8r	.
*>solo1	*>solo1
{8f/	.
=21	=21
8b-\L	1B-:maj
8ee-\	.
8dd\	.
8b-\J	.
8r	.
24een\LL	.
24dd\	.
24cc\JJ	.
8bn/L	.
8a/J	.
=22||	=22||
8g/L	2A:h7
8g-/	.
8e/J	.
8r	.
8c/L	2D:dom
8e-/	.
8c/	.
8c#/J	.
=23	=23
8d/L	2G:min
8B-/	.
8G/	.
8A/J	.
2c/}	2C:dom
=24	=24
4r	2F:min
{16r	.
16G/	.
24c/LL	.
24e-/	.
24g/JJ	.
8b-/L	2B-:dom
8g-/	.
8d/	.
8B-/J	.
=25	=25
[4f/	1E-:dom
8f/L]	.
16e-/L	.
16B-/JJ	.
8d-/L	.
[8G/J	.
4G/]}	.
=26	=26
2r	1E-:min
4r	.
{16dd-\LL	.
16ee-\	.
16dd-\	.
16cc\JJ	.
=27	=27
16b-/LL	1D:min
16g-/	.
16e-/	.
16c/JJ	.
16d/LL	.
16B-/	.
16G/	.
16A/JJ	.
16c/LL	.
16B-/	.
16A-/	.
16B-/JJ	.
16d/LL	.
16f/	.
16g-/	.
16a/JJ	.
=28	=28
16cc/LL	1D-:min
16a/	.
16b/	.
16a-/JJ	.
16e/LL	.
16c#/JJ	.
24b-\LL	.
24b-\	.
24an\JJ	.
24g/LL	.
24g/	.
24g-/JJ	.
16f/LL	.
16e/JJ	.
16e-/LL	.
16F#/	.
16G/	.
16B-/JJ	.
=29	=29
16d/LL	1C:min
16c/	.
16B-/	.
16G/J	.
8A/	.
[8E-/J	.
2E-/]}	.
=30	=30
8r	1F:dom
{24b-\LL	.
24b-\	.
24b-\JJ	.
[4gg\	.
8gg\L]	.
8ee-\J	.
16een\LL	.
16cc\	.
16dd-\	.
16a\JJ	.
=31	=31
16b-/LL	1B-:maj
16f#/	.
16g/	.
16e-/JJ	.
16en/LL	.
16c/	.
16d-/	.
16A/JJ	.
16B-/LL	.
16F#/	.
16G/JJ}	.
16r	.
4r	.
=32	=32
8r	2C:min
*>solo2	*>solo2
{4d/	.
8f/	.
8b-\L	2F:dom
8cc\	.
8a\	.
8b-\J	.
=33	=33
8cc\L	1B-:maj
8b-\	.
8a\	.
8b-\J	.
12dd\L	.
12ee-\	.
12een\J	.
8ff\L	.
8dd\J	.
=34||	=34||
8ee-/L	2A:h7
8a/J}	.
4r	.
2r	2D:dom
=35	=35
2r	2G:min
{8dd\L	1C:dom
16ee-\L	.
16dd\JJ	.
16cc\LL	.
16b\	.
16b-\	.
16a\JJ	.
=36	=36
16a-/LL	2F:maj
16c/	.
16c#/	.
16d/JJ	.
16g/LL	.
16g-/	.
16e/	.
16B-/JJ	.
16Bn/LL	2B-:dom
16d-/	.
16A-/	.
16G-/JJ	.
16Gn/LL	.
16B-/	.
16cn/	.
16dn/JJ	.
=37	=37
16f/LL	1E-:dom
16e-/	.
16B-/	.
16G/JJ	.
4B-/	.
4r	.
16f/LL	.
16e-/	.
16B-/	.
16G/JJ	.
=38	=38
4B-/}	1E-:min
4r	.
{16f/LL	.
16cc/	.
16B-/	.
16G/JJ	.
4B-/	.
=39	=39
4r	1D:dom
8r	.
16f/LL	.
16e-/JJ	.
16d/LL	.
16c/	.
16G/	.
16A/JJ	.
16c/LL	.
16B-/	.
16A/	.
16B-/JJ	.
=40	=40
16d/LL	1D-:min
16f/	.
16g/	.
16a/JJ	.
16cc/LL	.
16a/	.
16b/	.
16a-/JJ	.
8e/L	.
16b-/L	.
16an/JJ	.
16g/LL	.
16g-/	.
16f/	.
16e/JJ	.
=41	=41
16e-/LL	1C:min
16F#/	.
16G/	.
16B-/JJ	.
16d/LL	.
16c/	.
16B-/	.
16G/JJ	.
2A/}	.
=42	=42
8r	1F:dom
{8f\L	.
8b-\	.
[8dd\J	.
8dd\L]	.
16ee-\L	.
16dd\JJ	.
20b-/LL	.
20a-/	.
20f/	.
20e-/	.
20B-/JJ	.
=43	=43
4.d/	1B-:maj
[8f/	.
2f/]}	.
=44	=44
2r	2C:min
4r	2F:dom
8r	.
*>solo3	*>solo3
{8b-\	.
=45	=45
4dd\	1B-:maj
8gg\L	.
8gg-\J	.
8ff\L	.
8dd\	.
8ee-\	.
[8dd\J	.
=46||	=46||
8dd\]	2A:h7
32cc/LLL	.
32b-/	.
32a/	.
32g/JJJ	.
4g-/	.
8r	2D:dom
8A/L	.
8c/	.
8e-/J	.
=47	=47
8d/L	2G:min
8B-/J	.
4G/	.
8c/L	2C:dom
8B-/J	.
16A-/LL	.
16c/	.
16e-/	.
16g/JJ	.
=48	=48
8b-/L	2F:min
[8g-/J	.
4g-/]}	.
2r	2B-:dom
=49	=49
8r	1E-:dom
{[8f/	.
2f/]	.
8e-/L	.
8B-/J	.
=50	=50
4f/	1E-:min
12d-/L	.
12B-/	.
12F/J	.
6G-/	.
6f/	.
6e-/	.
=51	=51
4.d/	1D:min
8a/}	.
4r	.
8r	.
{8c/	.
=52	=52
24a-/LL	1D-:min
24an/	.
24a-/JJ	.
8g-/L	.
8e/	.
8A-/J	.
8B/L	.
8e-/	.
8d-/	.
8B/J	.
=53	=53
4.c/	1C:min
8b-\	.
4r	.
8r	.
[8c/	.
=54	=54
4c/]	2C:min
8b-/L	.
8c/J	.
4c#/	2F:dom:5#
8b-/L	.
8c#/J	.
=55	=55
4.d/	1B-:maj
8a/	.
2r	.
=56	=56
8r	2C:min
16cc/LL	.
16a/JJ	.
16b/LL	.
16a-/	.
16e/	.
16d-/JJ	.
16b-/LL	2F:dom
16an/	.
16g/	.
16f/JJ	.
16e-/LL	.
16G/	.
16B-/	.
16d-/JJ	.
=57	=57
16c/LL	1B-:maj
16B-/JJ	.
32A/LLL	.
32c/	.
32e-/	.
32g/JJJ	.
4f/}	.
2r	.
==	==
*-	*-
